storage/app/icons/phosphoricons/thin/textbox-thin.svg

<svg xmlns="http://www.w3.org/2000/svg" fill="currentColor" viewBox="0 0 256 256"><path d="M112 44a4 4 0 0 0-4 4v20H24a12 12 0 0 0-12 12v96a12 12 0 0 0 12 12h84v20a4 4 0 0 0 8 0V48a4 4 0 0 0-4-4M24 180a4 4 0 0 1-4-4V80a4 4 0 0 1 4-4h84v104ZM244 80v96a12 12 0 0 1-12 12h-88a4 4 0 0 1 0-8h88a4 4 0 0 0 4-4V80a4 4 0 0 0-4-4h-88a4 4 0 0 1 0-8h88a12 12 0 0 1 12 12M84 112a4 4 0 0 1-4 4H68v28a4 4 0 0 1-8 0v-28H48a4 4 0 0 1 0-8h32a4 4 0 0 1 4 4"/></svg>

<svg xmlns="http://www.w3.org/2000/svg" viewBox="0 0 256 256" fill="currentColor"><path d="M112,44a4,4,0,0,0-4,4V68H24A12,12,0,0,0,12,80v96a12,12,0,0,0,12,12h84v20a4,4,0,0,0,8,0V48A4,4,0,0,0,112,44ZM24,180a4,4,0,0,1-4-4V80a4,4,0,0,1,4-4h84V180ZM244,80v96a12,12,0,0,1-12,12H144a4,4,0,0,1,0-8h88a4,4,0,0,0,4-4V80a4,4,0,0,0-4-4H144a4,4,0,0,1,0-8h88A12,12,0,0,1,244,80ZM84,112a4,4,0,0,1-4,4H68v28a4,4,0,0,1-8,0V116H48a4,4,0,0,1,0-8H80A4,4,0,0,1,84,112Z"/></svg>
